; generated by Slic3r 1.0.0RC2 on 2014-02-28 at 14:57:54

; layer_height = 0.25
; perimeters = 3
; top_solid_layers = 3
; bottom_solid_layers = 3
; fill_density = 0.4
; perimeter_speed = 15
; infill_speed = 30
; travel_speed = 130
; nozzle_diameter = 0.35
; filament_diameter = 3
; extrusion_multiplier = 1
; perimeters extrusion width = 0.35mm
; infill extrusion width = 0.39mm
; solid infill extrusion width = 0.39mm
; top infill extrusion width = 0.39mm
; first layer extrusion width = 0.70mm

G21 ; set units to millimeters
M107
M190 S110 ; wait for bed temperature to be reached
M104 S225 ; set temperature
G28 ; home all axes
M109 S225 ; wait for temperature to be reached
G90 ; use absolute coordinates
G92 E0
M82 ; use absolute distances for extrusion
G1 F1800.000 E-1.00000
G92 E0
G1 Z0.150 F7800.000
G1 X90.396 Y89.499 F7800.000
G1 E1.00000 F1800.000
G1 X90.866 Y89.079 E1.01950 F270.000
G1 X91.456 Y88.619 E1.04265
G1 X91.916 Y88.289 E1.06017
G1 X92.706 Y87.779 E1.08926
G1 X93.306 Y87.439 E1.11060
G1 X94.056 Y87.069 E1.13648
G1 X94.716 Y86.789 E1.15866
G1 X95.406 Y86.579 E1.18098
G1 X97.806 Y85.989 E1.25745
G1 X98.406 Y85.869 E1.27638
G1 X99.356 Y85.789 E1.30588
G1 X100.776 Y85.789 E1.34981
G1 X101.326 Y85.829 E1.36688
G1 X101.946 Y85.909 E1.38622
G1 X102.776 Y86.049 E1.41226
G1 X103.476 Y86.199 E1.43441
G1 X104.156 Y86.439 E1.45673
G1 X106.436 Y87.359 E1.53280
G1 X106.976 Y87.599 E1.55108
G1 X107.756 Y88.059 E1.57910
G1 X108.946 Y88.939 E1.62490
G1 X109.366 Y89.289 E1.64181
G1 X109.846 Y89.739 E1.66217
G1 X110.436 Y90.339 E1.68821
G1 X110.916 Y90.879 E1.71056
G1 X111.336 Y91.469 E1.73297
G1 X112.636 Y93.549 E1.80886
G1 X112.996 Y94.209 E1.83213
G1 X113.276 Y94.899 E1.85517
G1 X113.576 Y95.769 E1.88364
G1 X113.756 Y96.379 E1.90332
G1 X114.006 Y97.519 E1.93943
G1 X114.126 Y98.349 E1.96538
G1 X114.186 Y99.049 E1.98712
G1 X114.176 Y99.759 E2.00909
G1 X114.006 Y102.199 E2.08477
G1 X113.936 Y102.779 E2.10284
G1 X113.826 Y103.349 E2.12081
G1 X113.626 Y104.089 E2.14452
G1 X113.446 Y104.649 E2.16272
G1 X113.056 Y105.649 E2.19594
G1 X112.806 Y106.189 E2.21435
G1 X112.416 Y106.939 E2.24050
G1 X112.046 Y107.549 E2.26258
G1 X111.616 Y108.129 E2.28492
G1 X110.046 Y110.009 E2.36070
G1 X109.536 Y110.559 E2.38391
G1 X108.956 Y111.049 E2.40740
G1 X108.226 Y111.599 E2.43569
G1 X107.716 Y111.949 E2.45482
G1 X107.246 Y112.239 E2.47191
G1 X106.356 Y112.719 E2.50320
G1 X105.776 Y112.999 E2.52313
G1 X105.216 Y113.229 E2.54186
G1 X104.626 Y113.409 E2.56094
G1 X102.236 Y114.009 E2.63719
G1 X101.656 Y114.119 E2.65546
G1 X100.766 Y114.209 E2.68313
G1 X99.236 Y114.209 E2.73047
G1 X98.246 Y114.119 E2.76123
G1 X97.676 Y114.039 E2.77904
G1 X96.846 Y113.879 E2.80520
G1 X95.866 Y113.569 E2.83700
G1 X93.576 Y112.649 E2.91336
G1 X92.906 Y112.329 E2.93633
G1 X92.276 Y111.939 E2.95926
G1 X91.526 Y111.419 E2.98750
G1 X91.056 Y111.069 E3.00563
G1 X90.636 Y110.719 E3.02254
G1 X90.156 Y110.269 E3.04290
G1 X89.566 Y109.669 E3.06894
G1 X89.086 Y109.129 E3.09129
G1 X88.666 Y108.539 E3.11370
G1 X87.356 Y106.439 E3.19028
G1 X86.836 Y105.419 E3.22571
G1 X86.706 Y105.099 E3.23640
G1 X86.356 Y104.059 E3.27035
G1 X86.116 Y103.119 E3.30037
G1 X85.986 Y102.489 E3.32027
G1 X85.866 Y101.659 E3.34622
G1 X85.806 Y100.959 E3.36796
G1 X85.816 Y100.259 E3.38962
G1 X85.986 Y97.789 E3.46622
G1 X86.056 Y97.159 E3.48584
G1 X86.196 Y96.539 E3.50550
G1 X86.376 Y95.879 E3.52667
G1 X86.726 Y94.849 E3.56033
G1 X86.936 Y94.339 E3.57740
G1 X87.206 Y93.769 E3.59691
G1 X87.596 Y93.029 E3.62279
G1 X87.956 Y92.429 E3.64444
G1 X88.376 Y91.869 E3.66610
G1 X89.966 Y89.969 E3.74276
G1 X90.333 Y89.568 E3.75957
G1 F1800.000 E2.75957
G92 E0
G1 X96.845 Y97.188 F7800.000
G1 E1.00000 F1800.000
G1 X97.845 Y96.449 E1.03847 F540.000
G1 X98.823 Y95.961 E1.07228
G1 X98.829 Y95.980 E1.07290
G1 X99.770 Y95.850 E1.10228
G1 X100.501 Y95.877 E1.12490
G1 X101.566 Y96.106 E1.15862
G1 X102.440 Y96.636 E1.19025
G1 X102.999 Y97.128 E1.21328
G1 X103.666 Y97.955 E1.24615
G1 X104.019 Y98.956 E1.27900
G1 X104.139 Y99.650 E1.30081
G1 X104.139 Y100.354 E1.32257
G1 X104.019 Y101.049 E1.34439
G1 X103.785 Y101.713 E1.36619
G1 X103.267 Y102.640 E1.39904
G1 X102.470 Y103.341 E1.43190
G1 X101.870 Y103.711 E1.45370
G1 X100.884 Y104.107 E1.48655
G1 X99.824 Y104.152 E1.51940
G1 X99.125 Y104.062 E1.54120
G1 X98.452 Y103.856 E1.56299
G1 X97.822 Y103.539 E1.58479
G1 X97.256 Y103.120 E1.60659
G1 X96.520 Y102.352 E1.63949
G1 X96.084 Y101.386 E1.67230
G1 X95.906 Y100.704 E1.69410
G1 X95.816 Y99.646 E1.72695
G1 X96.084 Y98.618 E1.75981
G1 X96.374 Y97.976 E1.78161
G1 X96.858 Y97.261 E1.80834
G1 X97.280 Y97.762 F7800.000
G1 X97.670 Y97.355 E1.82577 F540.000
G1 X98.160 Y96.993 E1.84462
G1 X98.686 Y96.730 E1.86281
G1 X99.256 Y96.555 E1.88128
G1 X99.829 Y96.478 E1.89916
G1 X100.437 Y96.502 E1.91798
G1 X101.019 Y96.625 E1.93639
G1 X101.570 Y96.843 E1.95472
G1 X102.085 Y97.157 E1.97338
G1 X102.546 Y97.562 E1.99237
G1 X102.922 Y98.027 E2.01088
G1 X103.213 Y98.550 E2.02938
G1 X103.412 Y99.114 E2.04789
G1 X103.514 Y99.704 E2.06641
G1 X103.514 Y100.301 E2.08489
G1 X103.412 Y100.891 E2.10341
G1 X103.213 Y101.455 E2.12192
G1 X102.922 Y101.977 E2.14042
G1 X102.546 Y102.442 E2.15893
G1 X102.097 Y102.837 E2.17743
G1 X101.587 Y103.151 E2.19594
G1 X101.033 Y103.374 E2.21444
G1 X100.448 Y103.500 E2.23295
G1 X99.850 Y103.525 E2.25146
G1 X99.257 Y103.449 E2.26996
G1 X98.685 Y103.274 E2.28847
G1 X98.151 Y103.005 E2.30697
G1 X97.670 Y102.649 E2.32548
G1 X97.237 Y102.189 E2.34504
G1 X96.922 Y101.722 E2.36248
G1 X96.675 Y101.177 E2.38098
G1 X96.524 Y100.598 E2.39949
G1 X96.474 Y100.002 E2.41799
G1 X96.524 Y99.406 E2.43650
G1 X96.675 Y98.827 E2.45501
G1 X96.922 Y98.282 E2.47351
G1 X97.223 Y97.836 E2.49018
G1 X97.094 Y97.230 F7800.000
G1 X96.501 Y97.139 F7800.000
G1 X96.821 Y96.364 E2.51611 F270.000
G1 X96.899 Y96.009 E2.52737
G1 X96.894 Y95.581 E2.54062
G1 X96.788 Y94.837 E2.56387
G1 X97.485 Y95.327 E2.59022
G1 X97.827 Y95.477 E2.60179
G1 X98.199 Y95.556 E2.61355
G1 X98.900 Y95.595 E2.63529
G1 X99.454 Y95.263 E2.65525
G1 X99.651 Y95.124 E2.66272
G1 X99.840 Y94.944 E2.67079
G1 X100.304 Y94.365 E2.69376
G1 X100.483 Y94.437 E2.69973
G1 X100.452 Y94.812 E2.71137
G1 X100.737 Y94.812 E2.72019
G1 X100.974 Y95.148 E2.73292
G1 X101.157 Y95.339 E2.74111
G1 X101.726 Y95.738 E2.76261
G1 X102.345 Y95.842 E2.78203
G1 X102.586 Y95.845 E2.78949
G1 X102.845 Y95.810 E2.79757
G1 X103.249 Y95.674 E2.81075
G1 X103.858 Y95.377 E2.83173
G1 X103.677 Y96.152 E2.85635
G1 X103.643 Y96.410 E2.86438
G1 X103.644 Y96.643 E2.87159
G1 X103.715 Y97.043 E2.88417
G1 X103.939 Y97.656 E2.90437
G1 X104.415 Y98.066 E2.92380
G1 X104.559 Y98.167 E2.92925
G1 X104.797 Y98.291 E2.93753
G1 X105.054 Y98.378 E2.94595
G1 X105.828 Y98.532 E2.97035
G1 X105.171 Y99.111 E2.99743
G1 X105.003 Y99.304 E3.00533
G1 X104.861 Y99.524 E3.01343
G1 X104.753 Y99.765 E3.02161
G1 X104.595 Y100.318 E3.03941
G1 X104.674 Y100.880 E3.05698
G1 X104.751 Y101.152 E3.06573
G1 X104.864 Y101.391 E3.07388
G1 X105.004 Y101.604 E3.08177
G1 X105.545 Y102.231 E3.10740
G1 X104.837 Y102.296 E3.12940
G1 X104.575 Y102.340 E3.13760
G1 X104.384 Y102.395 E3.14377
G1 X104.143 Y102.501 E3.15191
G1 X103.586 Y102.857 E3.17236
G1 X103.265 Y103.456 E3.19339
G1 X103.176 Y103.700 E3.20144
G1 X103.124 Y103.954 E3.20946
G1 X103.109 Y104.205 E3.21723
G1 X103.170 Y105.065 E3.24392
G1 X102.463 Y104.640 E3.26944
G1 X102.245 Y104.546 E3.27681
G1 X101.838 Y104.452 E3.28972
G1 X101.172 Y104.441 E3.31035
G1 X100.609 Y104.714 E3.32969
G1 X100.309 Y104.933 E3.34118
G1 X100.159 Y105.088 E3.34788
G1 X99.933 Y105.413 E3.36010
G1 X99.584 Y106.110 E3.38421
G1 X99.351 Y105.384 E3.40781
G1 X99.243 Y105.151 E3.41575
G1 X99.110 Y104.938 E3.42352
G1 X98.864 Y104.668 E3.43481
G1 X98.315 Y104.213 E3.45690
G1 X97.531 Y104.159 E3.48119
G1 X97.163 Y104.199 E3.49266
G1 X96.767 Y104.332 E3.50557
G1 X96.169 Y104.642 E3.52643
G1 X96.362 Y103.739 E3.55499
G1 X96.381 Y103.489 E3.56277
G1 X96.365 Y103.230 E3.57079
G1 X96.192 Y102.424 E3.59630
G1 X95.619 Y101.950 E3.61931
G1 X95.413 Y101.810 E3.62702
G1 X95.224 Y101.717 E3.63354
G1 X94.835 Y101.599 E3.64611
G1 X94.179 Y101.499 E3.66664
G1 X94.853 Y100.892 E3.69471
G1 X95.020 Y100.699 E3.70260
G1 X95.152 Y100.493 E3.71017
G1 X95.246 Y100.289 E3.71711
G1 X95.497 Y99.639 E3.73867
G1 X95.272 Y98.863 E3.76367
G1 X95.162 Y98.625 E3.77177
G1 X95.025 Y98.412 E3.77962
G1 X94.474 Y97.769 E3.80581
G1 X95.311 Y97.691 E3.83180
G1 X95.559 Y97.633 E3.83968
G1 X95.804 Y97.538 E3.84781
G1 X96.420 Y97.185 E3.86978
G1 X95.878 Y96.721 F7800.000
G1 X96.104 Y96.441 E3.88089 F189.000
G1 X96.229 Y96.165 E3.89027
G1 X96.276 Y95.945 E3.89724
G1 X96.265 Y95.601 E3.90787
G1 X96.183 Y95.308 E3.91730
G1 X96.048 Y95.041 E3.92655
G1 X95.875 Y94.806 E3.93559
G1 X95.415 Y94.367 E3.95526
G1 X95.972 Y93.965 E3.97652
G1 X96.419 Y93.690 E3.99276
G1 X96.925 Y93.427 E4.01040
G1 X97.140 Y94.008 E4.02956
G1 X97.265 Y94.249 E4.03798
G1 X97.459 Y94.512 E4.04810
G1 X97.585 Y94.634 E4.05351
G1 X97.810 Y94.791 E4.06200
G1 X98.013 Y94.880 E4.06885
G1 X98.284 Y94.935 E4.07743
G1 X98.503 Y94.933 E4.08419
G1 X98.866 Y94.850 E4.09572
G1 X99.116 Y94.737 E4.10422
G1 X99.374 Y94.525 E4.11454
G1 X99.567 Y94.240 E4.12519
G1 X99.673 Y93.954 E4.13465
G1 X99.721 Y93.661 E4.14384
G1 X99.720 Y93.367 E4.15292
G1 X99.607 Y92.748 E4.17238
G1 X100.292 Y92.751 E4.19356
G1 X100.816 Y92.791 E4.20981
G1 X101.379 Y92.876 E4.22745
G1 X101.213 Y93.459 E4.24623
G1 X101.132 Y94.187 E4.26888
G1 X101.164 Y94.187 E4.26989
G1 X101.376 Y94.641 E4.28540
G1 X101.591 Y94.887 E4.29550
G1 X101.769 Y95.015 E4.30230
G1 X101.891 Y95.075 E4.30651
G1 X102.189 Y95.187 E4.31635
G1 X102.382 Y95.218 E4.32237
G1 X102.662 Y95.206 E4.33105
G1 X102.884 Y95.149 E4.33814
G1 X103.138 Y95.023 E4.34692
G1 X103.285 Y94.918 E4.35251
G1 X103.503 Y94.702 E4.36201
G1 X103.676 Y94.463 E4.37113
G1 X103.947 Y93.904 E4.39037
G1 X104.496 Y94.305 E4.41141
G1 X104.897 Y94.646 E4.42769
G1 X105.303 Y95.046 E4.44532
G1 X104.830 Y95.415 E4.46390
G1 X104.638 Y95.608 E4.47233
G1 X104.439 Y95.888 E4.48296
G1 X104.329 Y96.142 E4.49151
G1 X104.267 Y96.468 E4.50180
G1 X104.296 Y96.795 E4.51194
G1 X104.365 Y97.002 E4.51869
G1 X104.554 Y97.319 E4.53012
G1 X104.745 Y97.529 E4.53888
G1 X104.993 Y97.689 E4.54802
G1 X105.214 Y97.773 E4.55535
G1 X105.502 Y97.814 E4.56433
G1 X105.750 Y97.803 E4.57201
G1 X106.018 Y97.750 E4.58049
G1 X106.297 Y97.647 E4.58967
G1 X106.778 Y97.390 E4.60655
G1 X106.984 Y98.029 E4.62733
G1 X107.108 Y98.540 E4.64362
G1 X107.203 Y99.103 E4.66128
G1 X106.594 Y99.127 E4.68014
G1 X106.304 Y99.177 E4.68924
G1 X106.010 Y99.280 E4.69887
G1 X105.872 Y99.353 E4.70372
G1 X105.615 Y99.552 E4.71378
G1 X105.504 Y99.680 E4.71900
G1 X105.412 Y99.823 E4.72426
G1 X105.342 Y99.980 E4.72959
G1 X105.282 Y100.230 E4.73754
G1 X105.265 Y100.598 E4.74895
G1 X105.298 Y100.796 E4.75515
G1 X105.409 Y101.083 E4.76468
G1 X105.610 Y101.348 E4.77498
G1 X105.858 Y101.548 E4.78483
G1 X106.135 Y101.689 E4.79444
G1 X106.405 Y101.775 E4.80322
G1 X107.015 Y101.884 E4.82237
G1 X106.812 Y102.503 E4.84253
G1 X106.613 Y102.990 E4.85881
G1 X106.361 Y103.498 E4.87636
G1 X105.860 Y103.169 E4.89493
G1 X105.612 Y103.044 E4.90351
G1 X105.339 Y102.952 E4.91243
G1 X105.138 Y102.919 E4.91871
G1 X104.883 Y102.921 E4.92661
G1 X104.647 Y102.969 E4.93406
G1 X104.435 Y103.056 E4.94117
G1 X104.218 Y103.209 E4.94938
G1 X103.970 Y103.489 E4.96095
G1 X103.837 Y103.712 E4.96899
G1 X103.779 Y103.871 E4.97422
G1 X103.745 Y104.036 E4.97944
G1 X103.747 Y104.364 E4.98958
G1 X103.824 Y104.668 E4.99929
G1 X103.960 Y104.946 E5.00887
G1 X104.123 Y105.174 E5.01753
G1 X104.311 Y105.374 E5.02601
G1 X104.600 Y105.624 E5.03786
G1 X104.047 Y106.026 E5.05902
G1 X103.600 Y106.303 E5.07530
G1 X103.087 Y106.572 E5.09323
G1 X102.817 Y105.868 E5.11657
G1 X102.659 Y105.614 E5.12582
G1 X102.447 Y105.384 E5.13550
G1 X102.177 Y105.198 E5.14565
G1 X102.028 Y105.133 E5.15068
G1 X101.768 Y105.073 E5.15892
G1 X101.510 Y105.073 E5.16693
G1 X101.180 Y105.147 E5.17739
G1 X100.925 Y105.255 E5.18595
G1 X100.689 Y105.438 E5.19518
G1 X100.481 Y105.714 E5.20587
G1 X100.353 Y106.035 E5.21658
G1 X100.303 Y106.307 E5.22515
G1 X100.300 Y106.612 E5.23457
G1 X100.392 Y107.255 E5.25466
G1 X99.735 Y107.254 E5.27499
G1 X99.211 Y107.216 E5.29125
G1 X98.637 Y107.132 E5.30920
G1 X98.812 Y106.520 E5.32892
G1 X98.854 Y106.210 E5.33859
G1 X98.845 Y105.940 E5.34695
G1 X98.815 Y105.763 E5.35250
G1 X98.724 Y105.509 E5.36083
G1 X98.608 Y105.312 E5.36792
G1 X98.504 Y105.188 E5.37294
G1 X98.251 Y104.990 E5.38286
G1 X97.908 Y104.843 E5.39441
G1 X97.631 Y104.787 E5.40314
G1 X97.465 Y104.786 E5.40829
G1 X97.194 Y104.837 E5.41681
G1 X96.977 Y104.927 E5.42410
G1 X96.747 Y105.078 E5.43261
G1 X96.531 Y105.285 E5.44187
G1 X96.360 Y105.516 E5.45074
G1 X96.071 Y106.113 E5.47126
G1 X95.520 Y105.712 E5.49235
G1 X95.120 Y105.373 E5.50859
G1 X94.680 Y104.943 E5.52761
G1 X95.013 Y104.729 E5.53988
G1 X95.229 Y104.554 E5.54847
G1 X95.512 Y104.226 E5.56189
G1 X95.656 Y103.959 E5.57126
G1 X95.742 Y103.649 E5.58120
G1 X95.744 Y103.316 E5.59152
G1 X95.652 Y102.997 E5.60178
G1 X95.499 Y102.733 E5.61123
G1 X95.300 Y102.499 E5.62073
G1 X95.095 Y102.350 E5.62857
G1 X94.805 Y102.234 E5.63825
G1 X94.551 Y102.193 E5.64622
G1 X94.369 Y102.192 E5.65185
G1 X94.099 Y102.230 E5.66027
G1 X93.831 Y102.314 E5.66897
G1 X93.576 Y102.435 E5.67770
G1 X93.230 Y102.636 E5.69009
G1 X93.018 Y101.981 E5.71138
G1 X92.893 Y101.472 E5.72761
G1 X92.798 Y100.908 E5.74529
G1 X93.438 Y100.878 E5.76511
G1 X93.717 Y100.829 E5.77389
G1 X94.010 Y100.726 E5.78348
G1 X94.149 Y100.653 E5.78836
G1 X94.406 Y100.453 E5.79844
G1 X94.516 Y100.325 E5.80365
G1 X94.669 Y100.047 E5.81347
G1 X94.725 Y99.865 E5.81938
G1 X94.757 Y99.501 E5.83068
G1 X94.733 Y99.247 E5.83858
G1 X94.685 Y99.082 E5.84387
G1 X94.614 Y98.928 E5.84915
G1 X94.416 Y98.662 E5.85939
G1 X94.170 Y98.462 E5.86920
G1 X93.896 Y98.320 E5.87875
G1 X93.628 Y98.232 E5.88749
G1 X92.986 Y98.115 E5.90765
G1 X93.191 Y97.492 E5.92795
G1 X93.390 Y97.006 E5.94418
G1 X93.646 Y96.492 E5.96197
G1 X94.179 Y96.847 E5.98177
G1 X94.433 Y96.972 E5.99054
G1 X94.730 Y97.061 E6.00013
G1 X94.885 Y97.083 E6.00499
G1 X95.211 Y97.072 E6.01506
G1 X95.374 Y97.035 E6.02026
G1 X95.534 Y96.973 E6.02556
G1 X95.812 Y96.787 E6.03590
G1 X96.227 Y96.807 F7800.000
G1 X94.164 Y97.344 F7800.000
G1 X94.127 Y97.307 E6.03678 F360.000
G1 X93.711 Y97.372 E6.04390 F360.000
G1 X93.739 Y97.401 E6.04459 F360.000
G1 X93.566 Y97.752 F7800.000
G1 X93.596 Y97.782 E6.04521 F360.000
G1 F1800.000 E5.04521
G92 E0
G1 X93.723 Y101.263 F7800.000
G1 E1.00000 F1800.000
G1 X93.743 Y101.284 E1.00068 F360.000
G1 X93.723 Y101.263 F7800.000
G1 X93.359 Y101.571 E1.01187 F360.000
G1 X93.408 Y101.619 E1.01349 F360.000
G1 X93.468 Y101.950 F7800.000
G1 X93.502 Y101.983 E1.01419 F360.000
G1 X97.305 Y103.186 F7800.000
G1 X95.679 Y104.716 F7800.000
G1 X95.706 Y104.742 E1.01495 F360.000
G1 X95.679 Y104.716 F7800.000
G1 X95.390 Y105.005 E1.02324 F360.000
G1 X95.578 Y105.193 E1.02863 F360.000
G1 X95.791 Y105.348 F7800.000
G1 X95.862 Y105.419 E1.03009 F360.000
G1 X97.305 Y103.186 F7800.000
G1 X99.606 Y104.926 F7800.000
G1 X99.981 Y104.572 E1.04322 F360.000
G1 X100.023 Y104.615 E1.04477 F360.000
G1 X99.668 Y104.988 F7800.000
G1 X99.606 Y104.926 E1.04698 F360.000
G1 X102.175 Y104.054 F7800.000
G1 X102.431 Y103.879 E1.05167 F360.000
G1 X102.676 Y104.124 E1.05690 F360.000
G1 X102.722 Y103.738 E1.06277 F360.000
G1 X102.698 Y103.714 E1.06328 F360.000
G1 X102.195 Y104.075 F7800.000
G1 X102.175 Y104.054 E1.06372 F360.000
G1 X103.639 Y105.274 F7800.000
G1 X103.702 Y105.337 E1.06503 F360.000
G1 X103.655 Y105.711 E1.07057 F360.000
G1 X103.682 Y105.737 E1.07113 F360.000
G1 X103.347 Y105.942 F7800.000
G1 X103.311 Y105.906 E1.07186 F360.000
G1 X104.149 Y102.021 F7800.000
G1 X104.126 Y101.998 E1.07232 F360.000
G1 X104.252 Y101.705 E1.07699 F360.000
G1 X104.463 Y101.917 E1.08137 F360.000
G1 X104.403 Y101.439 E1.08842 F360.000
G1 X104.372 Y101.408 E1.08907 F360.000
G1 X105.847 Y102.655 F7800.000
G1 X106.264 Y102.597 E1.09607 F360.000
G1 X106.292 Y102.625 E1.09674 F360.000
G1 X106.340 Y102.462 F7800.000
